aring.svg

<?xml version="1.0" encoding="UTF-8" standalone="no"?>
<svg xmlns="http://www.w3.org/2000/svg" viewBox="0 0 213 50">
 <path d="m8.064 44.208h2.88c0.48 0 0.72 0.24 0.72 0.72v2.352c0 0.528-0.24 0.72-0.72 0.72h-10.224c-0.528 0-0.72-0.24-0.72-0.72v-2.352c0-0.528 0.24-0.72 0.72-0.72h2.832l9.6-28.128c0.192-0.48 0.48-0.672 0.96-0.672h4.656c0.48 0 0.768 0.192 0.96 0.672l9.696 28.128h3.264c0.528 0 0.72 0.24 0.72 0.72v2.352c0 0.528-0.24 0.72-0.72 0.72h-12.048c-0.48 0-0.72-0.24-0.72-0.72v-2.352c0-0.528 0.24-0.72 0.72-0.72h2.976l-2.256-6.48h-11.088zm3.168-10.08h9.072l-4.512-14.112zm5.184-19.968c-3.024 0-4.704-2.208-4.704-4.848 0-2.688 2.064-4.8 4.8-4.8 3.024 0 4.752 2.16 4.752 4.56 0 2.88-1.968 5.088-4.848 5.088zm0.096-7.152c-1.392 0-2.016 0.96-2.016 2.304 0 1.296 0.72 2.352 2.016 2.352s2.064-1.056 2.064-2.352c0-1.344-0.72-2.304-2.064-2.304zm42.24 26.736v-1.68c0-2.304-0.384-4.656-4.176-4.656-3.024 0-3.936 1.344-4.32 3.072-0.096 0.432-0.288 0.72-0.72 0.72h-3.072c-0.48 0-0.72-0.24-0.672-0.72 0.288-4.992 4.608-6.768 9.552-6.768 6.864 0 8.592 3.648 8.592 7.872v12.624h2.064c0.48 0 0.72 0.24 0.72 0.72v2.352c0 0.528-0.24 0.72-0.72 0.72h-5.664c-0.48 0-0.672-0.24-0.72-0.72l-0.336-2.208c-1.728 2.352-4.08 3.504-7.488 3.504-3.648 0-7.104-1.68-7.104-6.768 0-7.776 8.688-7.968 14.064-8.064zm0.096 7.008v-3.696c-3.888 0.048-9.072 0.048-9.072 4.272 0 2.256 1.248 3.312 3.792 3.312 3.552 0 5.28-2.064 5.28-3.888zm-3.552-19.872c-3.024 0-4.704-2.208-4.704-4.848 0-2.688 2.064-4.8 4.8-4.8 3.024 0 4.752 2.16 4.752 4.56 0 2.88-1.968 5.088-4.848 5.088zm0.096-7.152c-1.392 0-2.016 0.96-2.016 2.304 0 1.296 0.72 2.352 2.016 2.352s2.064-1.056 2.064-2.352c0-1.344-0.72-2.304-2.064-2.304z"/>
 <path d="m161.03 13.296c-4.41 0-6.91-3.12-6.91-6.432 0-3.408 3.07-6.384 7.06-6.384 4.41 0 7 3.072 7 6.096 0 3.648-2.92 6.72-7.15 6.72zm0.29-9.792c-1.68 0-2.78 1.2-2.78 3.264s1.24 3.456 2.78 3.456c1.58 0 2.83-1.392 2.83-3.456s-1.2-3.264-2.83-3.264zm-7.34 40.224h1.96c0.87 0 1.44 0.576 1.44 1.2v2.352c0 0.672-0.62 1.2-1.44 1.2h-10.22c-0.96 0-1.44-0.624-1.44-1.2v-2.352c0-0.672 0.62-1.2 1.44-1.2h2.26l9.5-27.84c0.24-0.528 0.86-0.96 1.63-0.96h4.66c0.77 0 1.39 0.432 1.63 1.008l9.6 27.792h2.69c0.96 0 1.44 0.624 1.44 1.2v2.352c0 0.672-0.63 1.2-1.44 1.2h-12.05c-0.86 0-1.44-0.576-1.44-1.2v-2.352c0-0.672 0.62-1.2 1.44-1.2h2.06l-1.92-5.52h-9.93zm3.12-10.08h7.34l-3.65-11.376zm42.86-12c-4.42 0-6.91-3.12-6.91-6.432 0-3.408 3.07-6.384 7.05-6.384 4.42 0 7.01 3.072 7.01 6.096 0 3.648-2.93 6.72-7.15 6.72zm0.14-8.976c-1.48 0-2.4 0.864-2.4 2.496 0 1.584 1.06 2.64 2.4 2.64 1.35 0 2.4-1.056 2.4-2.64 0-1.632-1-2.496-2.4-2.496zm2.93 20.592v-1.2c0-2.304-0.29-4.176-3.45-4.176-2.6 0-3.22 0.96-3.6 2.688-0.1 0.432-0.53 1.104-1.44 1.104h-3.08c-0.86 0-1.44-0.624-1.39-1.248 0.29-5.232 5.14-7.2 10.27-7.2 7.4 0 9.32 4.08 9.32 8.352v12.144h1.34c0.86 0 1.44 0.576 1.44 1.2v2.352c0 0.672-0.62 1.2-1.44 1.2h-5.66c-0.92 0-1.4-0.624-1.44-1.104l-0.1-0.816c-1.73 1.632-4.08 2.496-7.01 2.496-3.84 0-7.82-1.92-7.82-7.248 0-7.872 8.59-8.4 14.06-8.544zm0.1 7.488v-3.216c-3.7 0.048-7.63 0.288-7.63 3.792 0 2.016 0.96 2.832 3.07 2.832 3.02 0 4.56-1.776 4.56-3.408z"/>
</svg>

<?xml version="1.0" encoding="UTF-8" standalone="no"?>
<svg viewBox="0 0 213 50" xmlns="http://www.w3.org/2000/svg">
        <path d="M8.064,44.208 L10.944,44.208 C11.424,44.208 11.664,44.448 11.664,44.928 L11.664,47.28 C11.664,47.808 11.424,48 10.944,48 L0.72,48 C0.192,48 0,47.76 0,47.28 L0,44.928 C0,44.4 0.24,44.208 0.72,44.208 L3.552,44.208 L13.152,16.08 C13.344,15.6 13.632,15.408 14.112,15.408 L18.768,15.408 C19.248,15.408 19.536,15.6 19.728,16.08 L29.424,44.208 L32.688,44.208 C33.216,44.208 33.408,44.448 33.408,44.928 L33.408,47.28 C33.408,47.808 33.168,48 32.688,48 L20.64,48 C20.16,48 19.92,47.76 19.92,47.28 L19.92,44.928 C19.92,44.4 20.16,44.208 20.64,44.208 L23.616,44.208 L21.36,37.728 L10.272,37.728 Z M11.232,34.128 L20.304,34.128 L15.792,20.016 Z M16.416,14.16 C13.392,14.16 11.712,11.952 11.712,9.312 C11.712,6.624 13.776,4.512 16.512,4.512 C19.536,4.512 21.264,6.672 21.264,9.072 C21.264,11.952 19.296,14.16 16.416,14.16 Z M16.512,7.008 C15.12,7.008 14.496,7.968 14.496,9.312 C14.496,10.608 15.216,11.664 16.512,11.664 C17.808,11.664 18.576,10.608 18.576,9.312 C18.576,7.968 17.856,7.008 16.512,7.008 Z M58.752,33.744 L58.752,32.064 C58.752,29.76 58.368,27.408 54.576,27.408 C51.552,27.408 50.64,28.752 50.256,30.48 C50.16,30.912 49.968,31.2 49.536,31.2 L46.464,31.2 C45.984,31.2 45.744,30.96 45.792,30.48 C46.08,25.488 50.4,23.712 55.344,23.712 C62.208,23.712 63.936,27.36 63.936,31.584 L63.936,44.208 L66,44.208 C66.48,44.208 66.72,44.448 66.72,44.928 L66.72,47.28 C66.72,47.808 66.48,48 66,48 L60.336,48 C59.856,48 59.664,47.76 59.616,47.28 L59.28,45.072 C57.552,47.424 55.2,48.576 51.792,48.576 C48.144,48.576 44.688,46.896 44.688,41.808 C44.688,34.032 53.376,33.84 58.752,33.744 Z M58.848,40.752 L58.848,37.056 C54.96,37.104 49.776,37.104 49.776,41.328 C49.776,43.584 51.024,44.64 53.568,44.64 C57.12,44.64 58.848,42.576 58.848,40.752 Z M55.296,20.88 C52.272,20.88 50.592,18.672 50.592,16.032 C50.592,13.344 52.656,11.232 55.392,11.232 C58.416,11.232 60.144,13.392 60.144,15.792 C60.144,18.672 58.176,20.88 55.296,20.88 Z M55.392,13.728 C54,13.728 53.376,14.688 53.376,16.032 C53.376,17.328 54.096,18.384 55.392,18.384 C56.688,18.384 57.456,17.328 57.456,16.032 C57.456,14.688 56.736,13.728 55.392,13.728 Z M55.392,13.728"></path>
        <path d="M161.032,13.296 C156.616,13.296 154.12,10.176 154.12,6.864 C154.12,3.456 157.192,0.48 161.176,0.48 C165.592,0.48 168.184,3.552 168.184,6.576 C168.184,10.224 165.256,13.296 161.032,13.296 Z M161.32,3.504 C159.64,3.504 158.536,4.704 158.536,6.768 C158.536,8.832 159.784,10.224 161.32,10.224 C162.904,10.224 164.152,8.832 164.152,6.768 C164.152,4.704 162.952,3.504 161.32,3.504 Z M153.976,43.728 L155.944,43.728 C156.808,43.728 157.384,44.304 157.384,44.928 L157.384,47.28 C157.384,47.952 156.76,48.48 155.944,48.48 L145.72,48.48 C144.76,48.48 144.28,47.856 144.28,47.28 L144.28,44.928 C144.28,44.256 144.904,43.728 145.72,43.728 L147.976,43.728 L157.48,15.888 C157.72,15.36 158.344,14.928 159.112,14.928 L163.768,14.928 C164.536,14.928 165.16,15.36 165.4,15.936 L175,43.728 L177.688,43.728 C178.648,43.728 179.128,44.352 179.128,44.928 L179.128,47.28 C179.128,47.952 178.504,48.48 177.688,48.48 L165.64,48.48 C164.776,48.48 164.2,47.904 164.2,47.28 L164.2,44.928 C164.2,44.256 164.824,43.728 165.64,43.728 L167.704,43.728 L165.784,38.208 L155.848,38.208 Z M157.096,33.648 L164.44,33.648 L160.792,22.272 Z M199.96,21.648 C195.544,21.648 193.048,18.528 193.048,15.216 C193.048,11.808 196.12,8.832 200.104,8.832 C204.52,8.832 207.112,11.904 207.112,14.928 C207.112,18.576 204.184,21.648 199.96,21.648 Z M200.104,12.672 C198.616,12.672 197.704,13.536 197.704,15.168 C197.704,16.752 198.76,17.808 200.104,17.808 C201.448,17.808 202.504,16.752 202.504,15.168 C202.504,13.536 201.496,12.672 200.104,12.672 Z M203.032,33.264 L203.032,32.064 C203.032,29.76 202.744,27.888 199.576,27.888 C196.984,27.888 196.36,28.848 195.976,30.576 C195.88,31.008 195.448,31.68 194.536,31.68 L191.464,31.68 C190.6,31.68 190.024,31.056 190.072,30.432 C190.36,25.2 195.208,23.232 200.344,23.232 C207.736,23.232 209.656,27.312 209.656,31.584 L209.656,43.728 L211,43.728 C211.864,43.728 212.44,44.304 212.44,44.928 L212.44,47.28 C212.44,47.952 211.816,48.48 211,48.48 L205.336,48.48 C204.424,48.48 203.944,47.856 203.896,47.376 L203.8,46.56 C202.072,48.192 199.72,49.056 196.792,49.056 C192.952,49.056 188.968,47.136 188.968,41.808 C188.968,33.936 197.56,33.408 203.032,33.264 Z M203.128,40.752 L203.128,37.536 C199.432,37.584 195.496,37.824 195.496,41.328 C195.496,43.344 196.456,44.16 198.568,44.16 C201.592,44.16 203.128,42.384 203.128,40.752 Z M203.128,40.752"></path>
</svg>
